source/images/work/glowfair-festival/glowfair-logo.svg

<svg height="207" viewBox="0 0 185 207" width="185" xmlns="http://www.w3.org/2000/svg"><path d="m162.149458 17.0077211c3.925271 4.1696946 6.003356 9.0220847 6.003356 14.7987397 0 5.7766549-2.078085 10.6395481-6.003356 14.5676734-3.935767 4.1696946-9.026025 6.2492903-14.798482 6.2492903h-73.026836c-5.310661 0-9.6977287 1.8485296-13.4025969 5.5455888-3.6943728 3.7075622-5.5415593 8.0978199-5.5415593 13.4123424l.4617966 67.5238443c0 5.325026 1.8366911 9.715284 5.5415593 13.412343 3.7048682 3.707562 8.0919359 5.556092 13.4025969 5.556092h34.8971294c5.310661 0 9.697729-1.84853 13.402597-5.556092 3.694373-3.697059 5.541559-8.087317 5.541559-13.170773 0-5.325026-1.847186-9.715284-5.541559-13.422846-3.704868-3.686556-8.091936-5.545589-13.402597-5.545589h-14.0952915c-5.3211563 0-9.7082241-1.848529-13.4130923-5.545588-3.6838774-3.707562-5.5415592-8.09782-5.5415592-13.422846 0-5.3145223 1.8576818-9.7152831 5.5415592-13.4018392 3.7048682-3.7075622 8.091936-5.5560918 13.4130923-5.5560918h17.5692615c17.548271 0 31.181766 4.621324 41.131384 14.1055411 10.400919 9.9463499 15.71158 24.0518909 15.71158 42.7892589 0 18.726865-5.310661 32.842909-15.71158 42.547689-9.949618 9.253151-23.583113 14.105541-41.131384 14.105541h-41.834574c-17.5692617 0-31.1922615-4.621324-41.1313838-14.105541-10.400919-9.94635-15.491177-24.051891-15.7220753-42.789259l-.4617966-71.2209034c-.2308983-18.726865 5.090258-32.8429091 15.4806816-42.7787556 9.9391223-9.4947201 23.5726175-14.105541 41.3727775-14.105541h76.4903106c5.772457 0 10.862715 2.0690928 14.798482 6.0077211" fill="#cb1057"/></svg>

<svg width="185px" height="207px" viewBox="0 0 185 207" version="1.1" xmlns="http://www.w3.org/2000/svg" xmlns:xlink="http://www.w3.org/1999/xlink">
  <path d="M162.149458,17.0077211 C166.074729,21.1774157 168.152814,26.0298058 168.152814,31.8064608 C168.152814,37.5831157 166.074729,42.4460089 162.149458,46.3741342 C158.213691,50.5438288 153.123433,52.6234245 147.350976,52.6234245 L74.32414,52.6234245 C69.013479,52.6234245 64.6264113,54.4719541 60.9215431,58.1690133 C57.2271703,61.8765755 55.3799838,66.2668332 55.3799838,71.5813557 L55.8417804,139.1052 C55.8417804,144.430226 57.6784715,148.820484 61.3833397,152.517543 C65.0882079,156.225105 69.4752756,158.073635 74.7859366,158.073635 L109.683066,158.073635 C114.993727,158.073635 119.380795,156.225105 123.085663,152.517543 C126.780036,148.820484 128.627222,144.430226 128.627222,139.34677 C128.627222,134.021744 126.780036,129.631486 123.085663,125.923924 C119.380795,122.237368 114.993727,120.378335 109.683066,120.378335 L95.5877745,120.378335 C90.2666182,120.378335 85.8795504,118.529806 82.1746822,114.832747 C78.4908048,111.125185 76.633123,106.734927 76.633123,101.409901 C76.633123,96.0953787 78.4908048,91.6946179 82.1746822,88.0080618 C85.8795504,84.3004996 90.2666182,82.45197 95.5877745,82.45197 L113.157036,82.45197 C130.705307,82.45197 144.338802,87.073294 154.28842,96.5575111 C164.689339,106.503861 170,120.609402 170,139.34677 C170,158.073635 164.689339,172.189679 154.28842,181.894459 C144.338802,191.14761 130.705307,196 113.157036,196 L71.322462,196 C53.7532003,196 40.1302005,191.378676 30.1910782,181.894459 C19.7901592,171.948109 14.6999012,157.842568 14.4690029,139.1052 L14.0072063,67.8842966 C13.776308,49.1574316 19.0974643,35.0413875 29.4878879,25.105541 C39.4270102,15.6108209 53.0605054,11 70.8606654,11 L147.350976,11 C153.123433,11 158.213691,13.0690928 162.149458,17.0077211" id="Fill-9" fill="#CB1057"></path>
</svg>
